Sweet-Rainbow/icons/audio-input-microphone.svg

<?xml version="1.0" encoding="UTF-8" standalone="no"?>
<!-- Generator: Gravit.io -->

<svg
   xmlns:dc="http://purl.org/dc/elements/1.1/"
   xmlns:cc="http://creativecommons.org/ns#"
   xmlns:rdf="http://www.w3.org/1999/02/22-rdf-syntax-ns#"
   xmlns:svg="http://www.w3.org/2000/svg"
   xmlns="http://www.w3.org/2000/svg"
   xmlns:sodipodi="http://sodipodi.sourceforge.net/DTD/sodipodi-0.dtd"
   xmlns:inkscape="http://www.inkscape.org/namespaces/inkscape"
   style="isolation:isolate"
   viewBox="0 0 36 36"
   width="48"
   height="48"
   version="1.1"
   id="svg11"
   sodipodi:docname="audio-input-microphone.svg"
   inkscape:version="0.92.4 (5da689c313, 2019-01-14)">
  <metadata
     id="metadata17">
    <rdf:RDF>
      <cc:Work
         rdf:about="">
        <dc:format>image/svg+xml</dc:format>
        <dc:type
           rdf:resource="http://purl.org/dc/dcmitype/StillImage" />
        <dc:title></dc:title>
      </cc:Work>
    </rdf:RDF>
  </metadata>
  <defs
     id="defs15" />
  <sodipodi:namedview
     pagecolor="#ffffff"
     bordercolor="#666666"
     borderopacity="1"
     objecttolerance="10"
     gridtolerance="10"
     guidetolerance="10"
     inkscape:pageopacity="0"
     inkscape:pageshadow="2"
     inkscape:window-width="640"
     inkscape:window-height="480"
     id="namedview13"
     showgrid="false"
     inkscape:zoom="29.365243"
     inkscape:cx="25.325443"
     inkscape:cy="32"
     inkscape:current-layer="svg11"
     units="px" />
  <linearGradient
     id="_lgradient_13"
     x1="0.49299783"
     y1="0.026090305"
     x2="0.54745376"
     y2="1.0280639"
     gradientTransform="matrix(43,0,0,47,2.5,1)"
     gradientUnits="userSpaceOnUse">
    <stop
       offset="2.1739130434782608%"
       stop-opacity="1"
       style="stop-color:rgb(242,79,92)"
       id="stop2" />
    <stop
       offset="49.56521739130435%"
       stop-opacity="1"
       style="stop-color:rgb(208,103,207)"
       id="stop4" />
    <stop
       offset="98.26086956521739%"
       stop-opacity="1"
       style="stop-color:rgb(49,193,233)"
       id="stop6" />
  </linearGradient>
  <g
     id="g825"
     transform="matrix(0.76595745,0,0,0.76595745,-0.38312256,-0.76595753)">
    <path
       id="path9"
       d="M 26,45 V 39.532 C 26,38.687 25.313,38 24.468,38 H 23.96 v 0 0 0 0 0 C 21.61,38 19.27,37.61 17.04,36.84 15.01,36.15 13.13,35.1 11.46,33.75 9.95,32.53 8.71,31.01 7.8,29.29 6.95,27.66 6.51,25.84 6.5,23.99 v 0 C 6.494,22.886 5.594,21.994 4.49,22 v 0 C 3.386,22.006 2.494,22.906 2.5,24.01 v 0 c 0.01,2.48 0.61,4.93 1.76,7.14 1.15,2.2 2.75,4.14 4.68,5.71 2.03,1.64 4.33,2.92 6.8,3.77 2.027,0.696 4.13,1.129 6.26,1.294 V 45 h -4.215 c -0.552,0 -1,0.448 -1,1 v 1 c 0,0.552 0.448,1 1,1 h 5.747 v 0 h 0.936 v 0 h 5.747 c 0.552,0 1,-0.448 1,-1 v -1 c 0,-0.552 -0.448,-1 -1,-1 z M 41.5,24.26 v 0 c 0.028,-1.104 0.944,-1.978 2.045,-1.95 v 0 c 1.101,0.028 1.977,0.946 1.955,2.05 v 0 c -0.05,1.82 -0.41,3.61 -1.09,5.31 -0.66,1.67 -1.6,3.23 -2.75,4.61 -1.19,1.42 -2.57,2.66 -4.1,3.69 -1.59,1.08 -3.31,1.95 -5.13,2.59 v 0 c -1.038,0.37 -2.18,-0.175 -2.55,-1.215 v 0 c -0.37,-1.04 0.177,-2.185 1.22,-2.555 v 0 c 1.49,-0.52 2.91,-1.24 4.22,-2.13 1.22,-0.83 2.32,-1.82 3.27,-2.95 0.88,-1.05 1.6,-2.24 2.11,-3.52 0.49,-1.25 0.76,-2.58 0.8,-3.93 z M 18.225,22.309 h 11.55 c 0.552,0 1,0.448 1,1 v 1 c 0,0.552 -0.448,1 -1,1 h -11.55 c -0.552,0 -1,-0.448 -1,-1 v -1 c 0,-0.552 0.448,-1 1,-1 z M 22.61,5 h 2.78 c 2.02,0 3.95,0.8 5.38,2.23 1.43,1.43 2.23,3.36 2.23,5.38 v 10.78 c 0,2.02 -0.8,3.95 -2.23,5.38 C 29.34,30.2 27.41,31 25.39,31 H 22.61 C 20.59,31 18.66,30.2 17.23,28.77 15.8,27.34 15,25.41 15,23.39 V 12.61 C 15,10.59 15.8,8.66 17.23,7.23 18.66,5.8 20.59,5 22.61,5 Z m 0,-4 h 2.78 c 3.08,0 6.03,1.22 8.21,3.4 2.18,2.18 3.4,5.13 3.4,8.21 v 10.78 c 0,3.08 -1.22,6.03 -3.4,8.21 -2.18,2.18 -5.13,3.4 -8.21,3.4 H 22.61 C 19.53,35 16.58,33.78 14.4,31.6 12.22,29.42 11,26.47 11,23.39 V 12.61 C 11,9.53 12.22,6.58 14.4,4.4 16.58,2.22 19.53,1 22.61,1 Z"
       style="fill:url(#_lgradient_13);fill-rule:evenodd"
       inkscape:connector-curvature="0" />
  </g>
</svg>

<?xml version="1.0" encoding="UTF-8" standalone="no"?><!-- Generator: Gravit.io --><svg xmlns="http://www.w3.org/2000/svg" xmlns:xlink="http://www.w3.org/1999/xlink" style="isolation:isolate" viewBox="0 0 48 48" width="48pt" height="48pt"><linearGradient id="_lgradient_13" x1="0.4929978294245887" y1="0.02609030518917871" x2="0.5474537675342448" y2="1.0280639260614228" gradientTransform="matrix(43,0,0,47,2.5,1)" gradientUnits="userSpaceOnUse"><stop offset="2.1739130434782608%" stop-opacity="1" style="stop-color:rgb(242,79,92)"/><stop offset="49.56521739130435%" stop-opacity="1" style="stop-color:rgb(208,103,207)"/><stop offset="98.26086956521739%" stop-opacity="1" style="stop-color:rgb(49,193,233)"/></linearGradient><path d=" M 26 45 L 26 39.532 C 26 38.687 25.313 38 24.468 38 L 23.96 38 L 23.96 38 L 23.96 38 L 23.96 38 L 23.96 38 L 23.96 38 C 21.61 38 19.27 37.61 17.04 36.84 C 15.01 36.15 13.13 35.1 11.46 33.75 C 9.95 32.53 8.71 31.01 7.8 29.29 C 6.95 27.66 6.51 25.84 6.5 23.99 L 6.5 23.99 C 6.494 22.886 5.594 21.994 4.49 22 L 4.49 22 C 3.386 22.006 2.494 22.906 2.5 24.01 L 2.5 24.01 C 2.51 26.49 3.11 28.94 4.26 31.15 C 5.41 33.35 7.01 35.29 8.94 36.86 C 10.97 38.5 13.27 39.78 15.74 40.63 C 17.767 41.326 19.87 41.759 22 41.924 L 22 45 L 17.785 45 C 17.233 45 16.785 45.448 16.785 46 L 16.785 47 C 16.785 47.552 17.233 48 17.785 48 L 23.532 48 L 23.532 48 L 24.468 48 L 24.468 48 L 30.215 48 C 30.767 48 31.215 47.552 31.215 47 L 31.215 46 C 31.215 45.448 30.767 45 30.215 45 L 26 45 Z  M 41.5 24.26 L 41.5 24.26 C 41.528 23.156 42.444 22.282 43.545 22.31 L 43.545 22.31 C 44.646 22.338 45.522 23.256 45.5 24.36 L 45.5 24.36 C 45.45 26.18 45.09 27.97 44.41 29.67 C 43.75 31.34 42.81 32.9 41.66 34.28 C 40.47 35.7 39.09 36.94 37.56 37.97 C 35.97 39.05 34.25 39.92 32.43 40.56 L 32.43 40.56 C 31.392 40.93 30.25 40.385 29.88 39.345 L 29.88 39.345 C 29.51 38.305 30.057 37.16 31.1 36.79 L 31.1 36.79 C 32.59 36.27 34.01 35.55 35.32 34.66 C 36.54 33.83 37.64 32.84 38.59 31.71 C 39.47 30.66 40.19 29.47 40.7 28.19 C 41.19 26.94 41.46 25.61 41.5 24.26 L 41.5 24.26 L 41.5 24.26 L 41.5 24.26 Z  M 18.225 22.309 L 29.775 22.309 C 30.327 22.309 30.775 22.757 30.775 23.309 L 30.775 24.309 C 30.775 24.861 30.327 25.309 29.775 25.309 L 18.225 25.309 C 17.673 25.309 17.225 24.861 17.225 24.309 L 17.225 23.309 C 17.225 22.757 17.673 22.309 18.225 22.309 L 18.225 22.309 Z  M 22.61 5 L 25.39 5 C 27.41 5 29.34 5.8 30.77 7.23 C 32.2 8.66 33 10.59 33 12.61 L 33 23.39 C 33 25.41 32.2 27.34 30.77 28.77 C 29.34 30.2 27.41 31 25.39 31 L 22.61 31 C 20.59 31 18.66 30.2 17.23 28.77 C 15.8 27.34 15 25.41 15 23.39 L 15 12.61 C 15 10.59 15.8 8.66 17.23 7.23 C 18.66 5.8 20.59 5 22.61 5 L 22.61 5 L 22.61 5 L 22.61 5 L 22.61 5 L 22.61 5 Z  M 22.61 1 L 25.39 1 C 28.47 1 31.42 2.22 33.6 4.4 C 35.78 6.58 37 9.53 37 12.61 L 37 23.39 C 37 26.47 35.78 29.42 33.6 31.6 C 31.42 33.78 28.47 35 25.39 35 L 22.61 35 C 19.53 35 16.58 33.78 14.4 31.6 C 12.22 29.42 11 26.47 11 23.39 L 11 12.61 C 11 9.53 12.22 6.58 14.4 4.4 C 16.58 2.22 19.53 1 22.61 1 L 22.61 1 L 22.61 1 L 22.61 1 L 22.61 1 L 22.61 1 Z " fill-rule="evenodd" fill="url(#_lgradient_13)"/></svg>
